Numix/16/status/indicator-keyboard-En-5.svg

<?xml version="1.0" encoding="UTF-8" standalone="no"?>
<svg
   xmlns:dc="http://purl.org/dc/elements/1.1/"
   xmlns:cc="http://creativecommons.org/ns#"
   xmlns:rdf="http://www.w3.org/1999/02/22-rdf-syntax-ns#"
   xmlns:svg="http://www.w3.org/2000/svg"
   xmlns="http://www.w3.org/2000/svg"
   xmlns:sodipodi="http://sodipodi.sourceforge.net/DTD/sodipodi-0.dtd"
   xmlns:inkscape="http://www.inkscape.org/namespaces/inkscape"
   viewBox="0 0 16 16"
   id="svg2"
   version="1.1"
   inkscape:version="0.91 r13725"
   sodipodi:docname="indicator-keyboard-En-5.svg">
  <metadata
     id="metadata14">
    <rdf:RDF>
      <cc:Work
         rdf:about="">
        <dc:format>image/svg+xml</dc:format>
        <dc:type
           rdf:resource="http://purl.org/dc/dcmitype/StillImage" />
      </cc:Work>
    </rdf:RDF>
  </metadata>
  <defs
     id="defs12" />
  <sodipodi:namedview
     pagecolor="#ffffff"
     bordercolor="#666666"
     borderopacity="1"
     objecttolerance="10"
     gridtolerance="10"
     guidetolerance="10"
     inkscape:pageopacity="0"
     inkscape:pageshadow="2"
     inkscape:window-width="640"
     inkscape:window-height="480"
     id="namedview10"
     showgrid="false"
     inkscape:zoom="14.75"
     inkscape:cx="8"
     inkscape:cy="8"
     inkscape:window-x="65"
     inkscape:window-y="24"
     inkscape:window-maximized="0"
     inkscape:current-layer="svg2" />
  <path
     style="fill:#ececec;fill-opacity:1"
     d="M 1.5996094 0 C 0.71320937 2.9605947e-16 0 0.71320937 0 1.5996094 L 0 14.400391 C 2.9605947e-16 15.286791 0.71320937 16 1.5996094 16 L 14.400391 16 C 15.286791 16 16 15.286791 16 14.400391 L 16 1.5996094 C 16 0.71320937 15.286791 0 14.400391 0 L 1.5996094 0 z M 1.9394531 4.859375 L 5.5390625 4.859375 L 5.5390625 5.390625 L 2.5507812 5.390625 L 2.5507812 7.5585938 L 5.2148438 7.5585938 L 5.2148438 8.0800781 L 2.5507812 8.0800781 L 2.5507812 10.564453 L 5.7734375 10.564453 L 5.7734375 11.095703 L 1.9394531 11.095703 L 1.9394531 4.859375 z M 8.6757812 6.3535156 C 9.0297812 6.3535156 9.3245938 6.4038594 9.5585938 6.5058594 C 9.7985937 6.6078594 9.9869999 6.7552656 10.125 6.9472656 C 10.269 7.1332656 10.371641 7.3570938 10.431641 7.6210938 C 10.491641 7.8850938 10.521484 8.1761406 10.521484 8.4941406 L 10.521484 11.095703 L 9.9375 11.095703 L 9.9375 8.6835938 C 9.9375 8.3535938 9.9132344 8.0756562 9.8652344 7.8476562 C 9.8232344 7.6196563 9.748625 7.4330625 9.640625 7.2890625 C 9.538625 7.1450625 9.4005625 7.0424219 9.2265625 6.9824219 C 9.0585625 6.9164219 8.8439375 6.8847656 8.5859375 6.8847656 C 8.3099375 6.8847656 8.0711875 6.8996875 7.8671875 6.9296875 C 7.6691875 6.9596875 7.5404687 6.9857656 7.4804688 7.0097656 L 7.4804688 11.095703 L 6.8945312 11.095703 L 6.8945312 6.6054688 C 7.0685312 6.5574688 7.3036563 6.5033594 7.5976562 6.4433594 C 7.8916563 6.3833594 8.2497813 6.3535156 8.6757812 6.3535156 z M 12.095703 8.8417969 L 13.921875 8.8417969 L 13.921875 9.1757812 L 12.429688 9.1757812 C 12.425821 9.2498812 12.419943 9.3458906 12.412109 9.4628906 C 12.404309 9.5798906 12.396472 9.6994188 12.388672 9.8242188 C 12.380872 9.9451188 12.371075 10.062681 12.359375 10.175781 C 12.347675 10.288881 12.337878 10.379012 12.330078 10.445312 C 12.630378 10.453112 12.889022 10.490341 13.107422 10.556641 C 13.325822 10.622941 13.506084 10.711119 13.646484 10.824219 C 13.786884 10.937319 13.890731 11.074475 13.957031 11.234375 C 14.027231 11.394275 14.060547 11.572578 14.060547 11.767578 C 14.060547 11.939178 14.033109 12.097894 13.974609 12.246094 C 13.920009 12.394294 13.833797 12.523613 13.716797 12.632812 C 13.599797 12.742012 13.450884 12.828225 13.271484 12.890625 C 13.092084 12.953025 12.880466 12.984375 12.634766 12.984375 C 12.509966 12.984375 12.392403 12.974578 12.283203 12.955078 C 12.177903 12.939478 12.081894 12.919884 11.996094 12.896484 C 11.914194 12.873084 11.843656 12.849572 11.785156 12.826172 C 11.726656 12.802772 11.68355 12.783178 11.65625 12.767578 L 11.755859 12.427734 C 11.779259 12.443334 11.818447 12.462928 11.873047 12.486328 C 11.931547 12.509728 11.998166 12.533241 12.072266 12.556641 C 12.150266 12.576141 12.236478 12.593775 12.330078 12.609375 C 12.427578 12.624975 12.529466 12.632812 12.634766 12.632812 C 12.829766 12.632812 12.990441 12.611259 13.119141 12.568359 C 13.251741 12.521559 13.357547 12.458859 13.435547 12.380859 C 13.513547 12.302859 13.568409 12.212728 13.599609 12.111328 C 13.634709 12.006028 13.652344 11.894337 13.652344 11.773438 C 13.652344 11.617437 13.626872 11.476362 13.576172 11.351562 C 13.525472 11.226762 13.435341 11.120956 13.306641 11.035156 C 13.177941 10.949356 13.005509 10.884697 12.787109 10.841797 C 12.568709 10.794997 12.290478 10.771484 11.955078 10.771484 C 11.978478 10.572584 11.998072 10.392316 12.013672 10.228516 C 12.029272 10.060816 12.042988 9.9001469 12.054688 9.7480469 C 12.066388 9.5920469 12.074225 9.4431281 12.078125 9.2988281 C 12.085925 9.1506281 12.091803 8.9977969 12.095703 8.8417969 z "
     id="path4" />
</svg>

<svg xmlns="http://www.w3.org/2000/svg" viewBox="0 0 16 16">
 <path d="m 1.6 0 c -0.886 0 -1.6 0.713 -1.6 1.6 l 0 12.801 c 0 0.886 0.713 1.6 1.6 1.6 l 12.801 0 c 0.886 0 1.6 -0.713 1.6 -1.6 l 0 -12.801 c 0 -0.886 -0.713 -1.6 -1.6 -1.6 l -12.801 0 z m 0.34 4.859 l 3.6 0 l 0 0.531 l -2.988 0 l 0 2.168 l 2.664 0 l 0 0.521 l -2.664 0 l 0 2.484 l 3.223 0 l 0 0.531 l -3.834 0 l 0 -6.236 z m 6.736 1.494 c 0.354 0 0.649 0.05 0.883 0.152 c 0.24 0.102 0.428 0.249 0.566 0.441 c 0.144 0.186 0.247 0.41 0.307 0.674 c 0.06 0.264 0.09 0.555 0.09 0.873 l 0 2.602 l -0.584 0 l 0 -2.412 c 0 -0.33 -0.024 -0.608 -0.072 -0.836 c -0.042 -0.228 -0.117 -0.415 -0.225 -0.559 c -0.102 -0.144 -0.24 -0.247 -0.414 -0.307 c -0.168 -0.066 -0.383 -0.098 -0.641 -0.098 c -0.276 0 -0.515 0.015 -0.719 0.045 c -0.198 0.03 -0.327 0.056 -0.387 0.08 l 0 4.086 l -0.586 0 l 0 -4.49 c 0.174 -0.048 0.409 -0.102 0.703 -0.162 c 0.294 -0.06 0.652 -0.09 1.078 -0.09 z m 3.42 2.488 l 1.826 0 l 0 0.334 l -1.492 0 c -0.004 0.074 -0.01 0.17 -0.018 0.287 c -0.008 0.117 -0.016 0.237 -0.023 0.361 c -0.008 0.121 -0.018 0.238 -0.029 0.352 c -0.012 0.113 -0.021 0.203 -0.029 0.27 c 0.3 0.008 0.559 0.045 0.777 0.111 c 0.218 0.066 0.399 0.154 0.539 0.268 c 0.14 0.113 0.244 0.25 0.311 0.41 c 0.07 0.16 0.104 0.338 0.104 0.533 c 0 0.172 -0.027 0.33 -0.086 0.479 c -0.055 0.148 -0.141 0.278 -0.258 0.387 c -0.117 0.109 -0.266 0.195 -0.445 0.258 c -0.179 0.062 -0.391 0.094 -0.637 0.094 c -0.125 0 -0.242 -0.01 -0.352 -0.029 c -0.105 -0.016 -0.201 -0.035 -0.287 -0.059 c -0.082 -0.023 -0.152 -0.047 -0.211 -0.07 c -0.059 -0.023 -0.102 -0.043 -0.129 -0.059 l 0.1 -0.34 c 0.023 0.016 0.063 0.035 0.117 0.059 c 0.059 0.023 0.125 0.047 0.199 0.07 c 0.078 0.019 0.164 0.037 0.258 0.053 c 0.098 0.016 0.199 0.023 0.305 0.023 c 0.195 0 0.356 -0.022 0.484 -0.064 c 0.133 -0.047 0.238 -0.109 0.316 -0.188 c 0.078 -0.078 0.133 -0.168 0.164 -0.27 c 0.035 -0.105 0.053 -0.217 0.053 -0.338 c 0 -0.156 -0.025 -0.297 -0.076 -0.422 c -0.051 -0.125 -0.141 -0.231 -0.27 -0.316 c -0.129 -0.086 -0.301 -0.15 -0.52 -0.193 c -0.218 -0.047 -0.497 -0.07 -0.832 -0.07 c 0.023 -0.199 0.043 -0.379 0.059 -0.543 c 0.016 -0.168 0.029 -0.328 0.041 -0.48 c 0.012 -0.156 0.02 -0.305 0.023 -0.449 c 0.008 -0.148 0.014 -0.301 0.018 -0.457 z" style="fill:#ececec;fill-opacity:1"/>
</svg>
